X: 15198
T: Gillie Callum
R: strathspey
M: 4/4
K: Amixolydian
AAce d2 (BG)|AATcA e2 T(cA)|BEBe d2 (BG)|AATcA (B/c/d) e2:|
AATcA g2 (BG)|AATcA a2 (ae)|g2 Tge d2 (BG)|AATcA (B/c/d) e2:|
AATcA G2 (BG)|AATcB A2 (TcA)|cATBA G2 (BG)|AATcA (B/c/d) e2:|
AATcA BgBG|AATcA AacA|aeTfd egBG|AATcA (B/c/d) e2:|
AATcA G/G/G BG|AATcB A/A/A (TcA)|cATBA G/G/G (BG)|AATcA (B/c/d) e2:|
AAce dgBG|AAce AacA|(a/g/f/e/ f)d gdBG|AATcA (B/c/d) e2:|

